public/images/logo.svg

<svg width="130" height="12" xmlns="http://www.w3.org/2000/svg"><path d="M.75 11c.075-.56.147-1.12.218-1.68.07-.56.145-1.168.224-1.823l.443-3.585c.085-.645.163-1.255.232-1.83L2.086.305h2.497c.24.61.47 1.193.687 1.75.217.558.433 1.112.649 1.662l1.274 3.27h.165l1.238-3.262.626-1.65c.208-.546.427-1.136.656-1.77h2.468a1660.544 1660.544 0 0 0 .457 3.615l.458 3.6c.08.65.156 1.25.229 1.8.072.55.143 1.11.213 1.68h-2.347c-.09-.75-.178-1.463-.263-2.138-.085-.675-.162-1.308-.232-1.897l-.315-2.535h-.165l-.93 2.722c-.225.67-.451 1.334-.679 1.991-.227.658-.439 1.276-.634 1.856H6.502a322.988 322.988 0 0 0-.952-2.523c-.17-.448-.337-.887-.502-1.317L4.013 4.43h-.165L3.54 6.95c-.07.595-.146 1.232-.229 1.91l-.258 2.14H.75Zm19.017 0a578.89 578.89 0 0 0 1.186-3.623L22.16 3.71c.215-.665.41-1.264.585-1.797.175-.532.35-1.069.525-1.609h3.18a469.731 469.731 0 0 0 1.11 3.406l1.193 3.675c.195.59.393 1.197.596 1.822l.581 1.792h-2.55a515.072 515.072 0 0 0-.982-3.45l-1.47-5.152h-.18l-1.486 5.1c-.16.555-.328 1.136-.506 1.744l-.514 1.758h-2.475Zm2.58-2.236.263-1.845h4.777l.21 1.846h-5.25ZM36.28 11V.303h4.103c.87 0 1.606.097 2.208.29.603.192 1.06.513 1.373.963.312.45.468 1.063.468 1.838 0 .615-.12 1.167-.363 1.657s-.632.878-1.166 1.163c-.535.284-1.236.427-2.1.427l.952-.9 1.455 2.145.72 1.061.746 1.103c.243.357.456.673.642.948H42.52c-.27-.42-.53-.822-.78-1.207-.25-.385-.492-.76-.727-1.125l-1.733-2.73 1.462 1.117H38.26V5.293h1.785c.4 0 .736-.049 1.009-.146.272-.098.478-.264.618-.499s.21-.558.21-.968c0-.304-.044-.55-.134-.738a1.092 1.092 0 0 0-.364-.439 1.314 1.314 0 0 0-.51-.21 3.08 3.08 0 0 0-.567-.052h-3.36L38.703.694V11H36.28Zm21.538 0c-.33-.476-.642-.922-.934-1.34-.293-.417-.579-.828-.859-1.233l-1.41-2.018h-.69V4.475h.66l1.26-1.65a293.263 293.263 0 0 0 1.92-2.52h2.843a323.846 323.846 0 0 0-2.693 3.315L56.22 5.712l-.045-1.088 1.883 2.603a1120.463 1120.463 0 0 1 1.904 2.633c.316.434.593.815.833 1.14h-2.977Zm-6.158 0V.303h2.46V11h-2.46Zm15.478 0V.303H71.39c.815 0 1.54.118 2.175.353.635.235 1.171.58 1.609 1.035a4.525 4.525 0 0 1 1.001 1.669c.23.657.345 1.408.345 2.253 0 .755-.101 1.46-.304 2.112a4.523 4.523 0 0 1-.967 1.713c-.443.49-1.026.873-1.751 1.148-.726.275-1.61.412-2.656.412H67.138Zm2.467-1.973h1.23c.77 0 1.381-.15 1.834-.45.452-.3.779-.71.978-1.23.2-.52.3-1.108.3-1.763 0-.494-.058-.944-.176-1.35a2.869 2.869 0 0 0-.54-1.046 2.374 2.374 0 0 0-.926-.675c-.375-.157-.823-.236-1.343-.236h-1.357V9.027Zm18.635 2.175c-.965 0-1.8-.149-2.505-.446-.705-.298-1.285-.705-1.74-1.223a5.116 5.116 0 0 1-1.016-1.773 6.574 6.574 0 0 1-.334-2.1c0-1.04.206-1.982.619-2.824A4.743 4.743 0 0 1 85.109.83c.817-.495 1.839-.743 3.064-.743.93 0 1.742.144 2.437.431a4.759 4.759 0 0 1 1.736 1.196c.463.51.809 1.1 1.039 1.77.23.67.345 1.39.345 2.16 0 1.065-.211 2.015-.634 2.85a4.769 4.769 0 0 1-1.856 1.98c-.815.486-1.815.728-3 .728Zm-.037-2.033c.495 0 .927-.093 1.297-.28.37-.188.677-.447.922-.777.246-.33.43-.706.552-1.129.122-.422.183-.869.183-1.338 0-.495-.066-.957-.198-1.384a3.428 3.428 0 0 0-.578-1.121 2.67 2.67 0 0 0-.926-.75 2.796 2.796 0 0 0-1.252-.27c-.486 0-.914.092-1.287.277a2.63 2.63 0 0 0-.933.769c-.25.327-.44.704-.57 1.128a4.59 4.59 0 0 0-.195 1.35c0 .475.062.924.187 1.347.125.422.311.797.559 1.125.247.327.557.585.93.772.372.188.808.281 1.308.281ZM102.105 11l-.45-1.698c-.16-.603-.31-1.162-.45-1.677l-.885-3.36a559.983 559.983 0 0 1-1.05-3.96h2.782a1464.078 1464.078 0 0 0 .855 4.125l.743 3.638h.188l.765-3.683c.09-.42.183-.863.28-1.33l.297-1.407.285-1.343h2.632a1211.281 1211.281 0 0 0 .886 4.095l.794 3.668h.18l.758-3.69c.13-.63.269-1.307.416-2.032l.416-2.04h2.79c-.175.635-.356 1.302-.543 2.002-.188.7-.361 1.345-.522 1.935l-.915 3.382c-.144.53-.297 1.096-.457 1.696-.16.6-.313 1.16-.458 1.68h-3c-.14-.6-.287-1.23-.442-1.887-.155-.657-.3-1.284-.435-1.878l-.795-3.39h-.188l-.764 3.39c-.13.59-.272 1.217-.424 1.882-.153.665-.297 1.292-.431 1.882h-2.858Zm18.605 0V.304h2.153c.5.73.972 1.42 1.417 2.067l1.335 1.946 1.74 2.52h.18V.304h2.317V11h-2.13c-.41-.6-.84-1.225-1.29-1.875l-1.477-2.13-1.763-2.55h-.172V11h-2.31Z" fill="#FFF"/></svg>

<?xml version="1.0" encoding="UTF-8" standalone="no"?>
<!DOCTYPE svg PUBLIC "-//W3C//DTD SVG 1.1//EN" "http://www.w3.org/Graphics/SVG/1.1/DTD/svg11.dtd">
<svg width="100%" height="100%" viewBox="0 0 130 12" version="1.1" xmlns="http://www.w3.org/2000/svg" xmlns:xlink="http://www.w3.org/1999/xlink" xml:space="preserve" xmlns:serif="http://www.serif.com/" style="fill-rule:evenodd;clip-rule:evenodd;stroke-linejoin:round;stroke-miterlimit:2;">
    <g transform="matrix(1,0,0,1,-0.75,-0.087)">
        <path d="M22.895,8.765C22.849,8.921 22.803,9.08 22.756,9.241L22.242,10.999L19.767,11C20.166,9.793 20.562,8.586 20.953,7.377L22.16,3.71C22.375,3.045 22.57,2.446 22.745,1.913C22.92,1.381 23.095,0.844 23.27,0.304L26.45,0.304C26.816,1.441 27.186,2.576 27.56,3.71L28.753,7.385C28.948,7.975 29.146,8.582 29.349,9.207L29.93,10.999L27.38,10.999C27.171,10.254 26.96,9.509 26.747,8.765L22.895,8.765ZM26.218,6.919L24.928,2.397L24.748,2.397L23.43,6.919L26.218,6.919ZM67.138,10.998L67.138,0.303L71.39,0.303C72.205,0.303 72.93,0.421 73.565,0.656C74.2,0.891 74.736,1.236 75.174,1.691C75.625,2.168 75.966,2.738 76.175,3.36C76.405,4.017 76.52,4.768 76.52,5.613C76.52,6.368 76.419,7.073 76.216,7.725C76.023,8.36 75.693,8.945 75.249,9.438C74.806,9.928 74.223,10.311 73.498,10.586C72.772,10.861 71.888,10.998 70.842,10.998L67.138,10.998ZM69.605,9.027L70.835,9.027C71.605,9.027 72.216,8.877 72.669,8.577C73.121,8.277 73.448,7.867 73.647,7.347C73.847,6.827 73.947,6.239 73.947,5.584C73.947,5.09 73.889,4.64 73.771,4.234C73.665,3.852 73.481,3.496 73.231,3.188C72.982,2.891 72.664,2.659 72.305,2.513C71.93,2.356 71.482,2.277 70.962,2.277L69.605,2.277L69.605,9.027ZM38.703,7.053L38.703,11L36.28,11L36.28,0.303L40.383,0.303C41.253,0.303 41.989,0.4 42.591,0.593C43.194,0.785 43.651,1.106 43.964,1.556C44.276,2.006 44.432,2.619 44.432,3.394C44.432,4.009 44.312,4.561 44.069,5.051C43.826,5.541 43.437,5.929 42.903,6.214C42.707,6.318 42.489,6.403 42.249,6.469L43.21,7.886L43.93,8.947L44.676,10.05C44.919,10.407 45.132,10.723 45.318,10.998L42.52,10.998C42.25,10.578 41.99,10.176 41.74,9.791C41.49,9.406 41.248,9.031 41.013,8.666L39.989,7.053L38.703,7.053ZM38.703,5.293L40.045,5.293C40.445,5.293 40.781,5.244 41.054,5.147C41.326,5.049 41.532,4.883 41.672,4.648C41.812,4.413 41.882,4.09 41.882,3.68C41.882,3.376 41.838,3.13 41.748,2.942C41.668,2.766 41.542,2.615 41.384,2.503C41.231,2.398 41.057,2.326 40.874,2.293C40.687,2.258 40.497,2.241 40.307,2.241L38.703,2.241L38.703,5.293ZM54.12,6.409L54.12,11L51.66,11L51.66,0.303L54.12,0.303L54.12,4.475L54.585,4.475L55.845,2.825C56.49,1.988 57.13,1.148 57.765,0.305L60.608,0.305C59.703,1.404 58.805,2.509 57.915,3.62L56.612,5.228L58.058,7.227C58.694,8.104 59.329,8.981 59.962,9.86C60.278,10.294 60.555,10.675 60.795,11L57.818,11C57.488,10.524 57.176,10.078 56.884,9.66C56.591,9.243 56.305,8.832 56.025,8.427L54.615,6.409L54.12,6.409ZM0.75,11C0.825,10.44 0.897,9.88 0.968,9.32C1.038,8.76 1.113,8.152 1.192,7.497L1.635,3.912C1.72,3.267 1.798,2.657 1.867,2.082L2.086,0.305L4.583,0.305C4.823,0.915 5.053,1.498 5.27,2.055C5.487,2.613 5.703,3.167 5.919,3.717L7.193,6.987L7.358,6.987L8.596,3.725L9.222,2.075C9.43,1.529 9.649,0.939 9.878,0.305L12.346,0.305C12.497,1.51 12.649,2.715 12.803,3.92L13.261,7.52C13.341,8.17 13.417,8.77 13.49,9.32C13.562,9.87 13.633,10.43 13.703,11L11.356,11C11.266,10.25 11.178,9.537 11.093,8.862C11.008,8.187 10.931,7.554 10.861,6.965L10.546,4.43L10.381,4.43L9.451,7.152C9.226,7.822 9,8.486 8.772,9.143C8.545,9.801 8.333,10.419 8.138,10.999L6.502,10.999C6.188,10.157 5.871,9.316 5.55,8.476C5.38,8.028 5.213,7.589 5.048,7.159L4.013,4.43L3.848,4.43L3.54,6.95C3.47,7.545 3.394,8.182 3.311,8.86L3.053,11L0.75,11ZM88.24,11.202C87.275,11.202 86.44,11.053 85.735,10.756C85.03,10.458 84.45,10.051 83.995,9.533C83.541,9.016 83.195,8.413 82.979,7.76C82.754,7.083 82.642,6.373 82.645,5.66C82.645,4.62 82.851,3.678 83.264,2.836C83.669,2.001 84.311,1.304 85.109,0.83C85.926,0.335 86.948,0.087 88.173,0.087C89.103,0.087 89.915,0.231 90.61,0.518C91.271,0.782 91.864,1.191 92.346,1.714C92.809,2.224 93.155,2.814 93.385,3.484C93.615,4.154 93.73,4.874 93.73,5.644C93.73,6.709 93.519,7.659 93.096,8.494C92.682,9.32 92.037,10.008 91.24,10.474C90.425,10.96 89.425,11.202 88.24,11.202ZM88.203,9.169C88.698,9.169 89.13,9.076 89.5,8.889C89.87,8.701 90.177,8.442 90.422,8.112C90.668,7.782 90.852,7.406 90.974,6.983C91.096,6.561 91.157,6.114 91.157,5.645C91.157,5.15 91.091,4.688 90.959,4.261C90.837,3.855 90.641,3.475 90.381,3.14C90.133,2.823 89.816,2.567 89.455,2.39C89.064,2.204 88.636,2.112 88.203,2.12C87.717,2.12 87.289,2.212 86.916,2.397C86.55,2.577 86.23,2.841 85.983,3.166C85.733,3.493 85.543,3.87 85.413,4.294C85.281,4.732 85.215,5.187 85.218,5.644C85.218,6.119 85.28,6.568 85.405,6.991C85.53,7.413 85.716,7.788 85.964,8.116C86.211,8.443 86.521,8.701 86.894,8.888C87.266,9.076 87.703,9.169 88.203,9.169ZM102.105,11L101.655,9.302C101.495,8.699 101.345,8.14 101.205,7.625L100.32,4.265C99.965,2.946 99.615,1.626 99.27,0.305L102.052,0.305C102.335,1.68 102.62,3.055 102.907,4.43L103.65,8.068L103.838,8.068L104.603,4.385C104.693,3.965 104.786,3.522 104.883,3.055L105.18,1.648L105.465,0.305L108.097,0.305C108.39,1.671 108.685,3.036 108.983,4.4L109.777,8.068L109.957,8.068L110.715,4.378C110.845,3.748 110.984,3.071 111.131,2.346L111.547,0.306L114.337,0.306C114.162,0.941 113.981,1.608 113.794,2.308C113.606,3.008 113.433,3.653 113.272,4.243L112.357,7.625C112.213,8.155 112.06,8.721 111.9,9.321C111.74,9.921 111.587,10.481 111.442,11.001L108.442,11.001C108.302,10.401 108.155,9.771 108,9.114C107.845,8.457 107.7,7.83 107.565,7.236L106.77,3.846L106.582,3.846L105.818,7.236C105.688,7.826 105.546,8.453 105.394,9.118C105.241,9.783 105.097,10.41 104.963,11L102.105,11ZM120.71,11L120.71,0.304L122.863,0.304C123.363,1.034 123.835,1.724 124.28,2.371L125.615,4.317L127.355,6.837L127.535,6.837L127.535,0.304L129.852,0.304L129.852,11L127.722,11C127.312,10.4 126.882,9.775 126.432,9.125L124.955,6.995L123.192,4.445L123.02,4.445L123.02,11L120.71,11Z" style="fill:white;"/>
    </g>
</svg>
